Newaita/actions/16/draw-line.svg

<svg height="16" viewBox="0 0 16 16" width="16" xmlns="http://www.w3.org/2000/svg"><g fill="#424242"><path d="m9.921875 2.109375c-.367187 0-.660156.296875-.660156.660156v3.308594c0 .367187.292969.660156.660156.660156h3.308594c.367187 0 .660156-.292969.660156-.660156v-3.308594c0-.363281-.292969-.660156-.660156-.660156zm.992187 1.324219h1.324219c.183594 0 .332031.148437.332031.328125v1.324219c0 .183593-.148437.332031-.332031.332031h-1.324219c-.183593 0-.328124-.148438-.328124-.332031v-1.324219c0-.179688.144531-.328125.328124-.328125zm0 0"/><path d="m2.644531 9.386719c-.363281 0-.660156.292969-.660156.660156v3.308594c0 .367187.296875.660156.660156.660156h3.308594c.367187 0 .660156-.292969.660156-.660156v-3.308594c0-.367187-.292969-.660156-.660156-.660156zm.992188 1.324219h1.324219c.183593 0 .332031.144531.332031.328124v1.324219c0 .183594-.148438.332031-.332031.332031h-1.324219c-.179688 0-.328125-.148437-.328125-.332031v-1.324219c0-.183593.148437-.328124.328125-.328124zm0 0"/><path d="m10.277344 5.257812.46875.464844c.128906.132813.128906.339844 0 .46875l-4.679688 4.679688c-.128906.128906-.335937.128906-.46875 0l-.464844-.46875c-.128906-.128906-.128906-.339844 0-.46875l4.675782-4.675782c.128906-.128906.339844-.128906.46875 0zm0 0"/></g></svg>

<?xml version="1.0" encoding="UTF-8"?>
<svg xmlns="http://www.w3.org/2000/svg" xmlns:xlink="http://www.w3.org/1999/xlink" width="16px" height="16px" viewBox="0 0 16 16" version="1.1">
<g id="surface1">
<path style=" stroke:none;fill-rule:nonzero;fill:rgb(25.882354%,25.882354%,25.882354%);fill-opacity:1;" d="M 9.921875 2.109375 C 9.554688 2.109375 9.261719 2.40625 9.261719 2.769531 L 9.261719 6.078125 C 9.261719 6.445312 9.554688 6.738281 9.921875 6.738281 L 13.230469 6.738281 C 13.597656 6.738281 13.890625 6.445312 13.890625 6.078125 L 13.890625 2.769531 C 13.890625 2.40625 13.597656 2.109375 13.230469 2.109375 Z M 10.914062 3.433594 L 12.238281 3.433594 C 12.421875 3.433594 12.570312 3.582031 12.570312 3.761719 L 12.570312 5.085938 C 12.570312 5.269531 12.421875 5.417969 12.238281 5.417969 L 10.914062 5.417969 C 10.730469 5.417969 10.585938 5.269531 10.585938 5.085938 L 10.585938 3.761719 C 10.585938 3.582031 10.730469 3.433594 10.914062 3.433594 Z M 10.914062 3.433594 "/>
<path style=" stroke:none;fill-rule:nonzero;fill:rgb(25.882354%,25.882354%,25.882354%);fill-opacity:1;" d="M 2.644531 9.386719 C 2.28125 9.386719 1.984375 9.679688 1.984375 10.046875 L 1.984375 13.355469 C 1.984375 13.722656 2.28125 14.015625 2.644531 14.015625 L 5.953125 14.015625 C 6.320312 14.015625 6.613281 13.722656 6.613281 13.355469 L 6.613281 10.046875 C 6.613281 9.679688 6.320312 9.386719 5.953125 9.386719 Z M 3.636719 10.710938 L 4.960938 10.710938 C 5.144531 10.710938 5.292969 10.855469 5.292969 11.039062 L 5.292969 12.363281 C 5.292969 12.546875 5.144531 12.695312 4.960938 12.695312 L 3.636719 12.695312 C 3.457031 12.695312 3.308594 12.546875 3.308594 12.363281 L 3.308594 11.039062 C 3.308594 10.855469 3.457031 10.710938 3.636719 10.710938 Z M 3.636719 10.710938 "/>
<path style=" stroke:none;fill-rule:nonzero;fill:rgb(25.882354%,25.882354%,25.882354%);fill-opacity:1;" d="M 10.277344 5.257812 L 10.746094 5.722656 C 10.875 5.855469 10.875 6.0625 10.746094 6.191406 L 6.066406 10.871094 C 5.9375 11 5.730469 11 5.597656 10.871094 L 5.132812 10.402344 C 5.003906 10.273438 5.003906 10.0625 5.132812 9.933594 L 9.808594 5.257812 C 9.9375 5.128906 10.148438 5.128906 10.277344 5.257812 Z M 10.277344 5.257812 "/>
</g>
</svg>
